X: 1
T:Gypsy Princess
M:4/4
L:1/8
S:Brendan Begley
S:Terry Moylan <terrym@IOL.IE> irtrad-l 2001-8-13
R:Barn Dance
K:G
GA | B3B B2 B2 | ABAG E2 D2 | G3 B d2 Bd | (3efe dB A2 GA | B3B B2 B2 |
ABAG E2 D2 | G3A BddB | A2 G2 G2 :|: Bc | d3d d2 d2 | BcBA GA (3Bcd | e3
e e2 e2 | BcBA GABc | d3d d2 d2 | BcBA GABd | g3e dBGA | B2 (3ABA G2 :|
